images/icon-zeus-circle.svg

<?xml version="1.0" encoding="UTF-8" standalone="no"?>
<svg width="64px" height="64px" viewBox="0 0 64 64" version="1.1" xmlns="http://www.w3.org/2000/svg" xmlns:xlink="http://www.w3.org/1999/xlink">
    <!-- Generator: Sketch 39.1 (31720) - http://www.bohemiancoding.com/sketch -->
    <title>icon-zeus-circle</title>
    <desc>Created with Sketch.</desc>
    <defs></defs>
    <g id="Symbols" stroke="none" stroke-width="1" fill="none" fill-rule="evenodd">
        <g id="icon-zeus-circle" fill="#000000">
            <g>
                <path d="M32,2.20689655 C15.5718621,2.20689655 2.20689655,15.5718621 2.20689655,32 C2.20689655,48.4281379 15.5718621,61.7931034 32,61.7931034 C48.4281379,61.7931034 61.7931034,48.4281379 61.7931034,32 C61.7931034,15.5718621 48.4281379,2.20689655 32,2.20689655 M32,64 C14.3558621,64 0,49.6452414 0,32 C0,14.3547586 14.3558621,0 32,0 C49.6441379,0 64,14.3547586 64,32 C64,49.6452414 49.6441379,64 32,64" id="Fill-1"></path>
                <path d="M42.0782345,30.0388414 C41.897269,29.6923586 41.5419586,29.4771862 41.1502345,29.4771862 L32.3303724,29.4793931 L37.2903724,15.7458759 C37.4062345,15.4258759 37.3587862,15.0683586 37.1623724,14.7891862 C36.9659586,14.5111172 36.6470621,14.3444966 36.3060966,14.3444966 L29.1557517,14.3444966 C28.7110621,14.3444966 28.3138207,14.6269793 28.1626483,15.0617379 L21.8608552,34.8553931 C21.7494069,35.1753931 21.8001655,35.5307034 21.9954759,35.8065655 C22.1907862,36.0824276 22.5096828,36.2468414 22.8484414,36.2468414 L30.3706483,36.2479448 L26.0241655,50.5067034 C25.8718897,51.0098759 26.0947862,51.5218759 26.5681655,51.7524966 C26.7204414,51.8264276 26.8793379,51.8617379 27.0349241,51.8617379 C27.3648552,51.8617379 27.6793379,51.7028414 27.8845793,51.4093241 L42.0098207,31.1213241 C42.2327172,30.8002207 42.2592,30.3853241 42.0782345,30.0388414" id="Fill-3"></path>
            </g>
        </g>
    </g>
</svg>

<svg width="64" height="64" viewBox="0 0 64 64" xmlns="http://www.w3.org/2000/svg"><title>icon-zeus-circle</title><g fill="#000" fill-rule="evenodd"><path d="M32 2.207C15.572 2.207 2.207 15.572 2.207 32c0 16.428 13.365 29.793 29.793 29.793 16.428 0 29.793-13.365 29.793-29.793C61.793 15.572 48.428 2.207 32 2.207M32 64C14.356 64 0 49.645 0 32S14.356 0 32 0s32 14.355 32 32-14.356 32-32 32"/><path d="M42.078 30.039a1.043 1.043 0 0 0-.928-.562l-8.82.002 4.96-13.733a1.045 1.045 0 0 0-.984-1.402h-7.15c-.445 0-.842.283-.993.718L21.86 34.855a1.046 1.046 0 0 0 .988 1.391l7.522.002-4.347 14.259a1.03 1.03 0 0 0 .544 1.245 1.031 1.031 0 0 0 1.316-.343L42.01 31.121c.223-.32.25-.736.068-1.082"/></g></svg>
